Obsidian-SemiLight/actions/24s/code-function.svg

<svg viewBox="0 0 24 24" xmlns="http://www.w3.org/2000/svg"><path d="m7 8v1h4v-1zm5 0v8h8v-8zm-8 2v1h4v-1zm1 3v1h3v-1zm2 2v1h4v-1z" fill="#4d4d4d"/></svg>

<svg xmlns="http://www.w3.org/2000/svg" viewBox="0 0 24 24">
  <defs id="defs3051">
    <style type="text/css" id="current-color-scheme">
      .ColorScheme-Text {
        color:#4d4d4d;
      }
      </style>
  </defs>
 <path style="fill:currentColor;fill-opacity:1;stroke:none" 
     d="M 7 8 L 7 9 L 11 9 L 11 8 L 7 8 z M 12 8 L 12 16 L 20 16 L 20 8 L 12 8 z M 4 10 L 4 11 L 8 11 L 8 10 L 4 10 z M 5 13 L 5 14 L 8 14 L 8 13 L 5 13 z M 7 15 L 7 16 L 11 16 L 11 15 L 7 15 z "
     class="ColorScheme-Text"
     />
</svg>
